paginas/static/paginas/imagens/ia/leiapix_logo.7d234669.svg

<svg width="104" height="48" viewBox="0 0 104 48" fill="#000" xmlns="http://www.w3.org/2000/svg">
<path d="M5.428 41.7314C3.06667 41.7314 1.22667 39.8914 1.22667 37.4534C1.22667 35.0154 3.06667 33.1907 5.428 33.1907C7.32933 33.1907 8.70933 34.264 9.13867 35.966H10.396C9.90533 33.62 7.98867 32.056 5.428 32.056C2.42267 32.056 0 34.3714 0 37.4534C0 40.5354 2.42267 42.866 5.428 42.866C7.98867 42.866 9.90533 41.2867 10.396 38.9407H9.13867C8.70933 40.6274 7.32933 41.7314 5.428 41.7314Z" fill="white"/>
<path d="M15.7793 35.368C13.6327 35.368 11.992 36.9934 11.992 39.1094C11.992 41.256 13.6327 42.8507 15.7793 42.8507C17.8953 42.8507 19.5513 41.256 19.5513 39.1094C19.5513 36.9934 17.8953 35.368 15.7793 35.368ZM15.7793 41.7774C14.2767 41.7774 13.1573 40.612 13.1573 39.1094C13.1573 37.6374 14.2767 36.4414 15.7793 36.4414C17.2667 36.4414 18.3707 37.6374 18.3707 39.1094C18.3707 40.612 17.2667 41.7774 15.7793 41.7774Z" fill="white"/>
<path d="M25.2497 35.368C24.2377 35.368 23.3637 35.7207 22.7044 36.3494V35.552H21.539V42.6667H22.7044V37.668C23.3177 36.8707 24.1917 36.4414 25.035 36.4414C26.2924 36.4414 27.1357 37.208 27.1357 38.6494V42.6667H28.301V38.588C28.301 36.5794 27.059 35.368 25.2497 35.368Z" fill="white"/>
<path d="M35.99 35.552L33.3373 41.1947L30.6846 35.552H29.4426L32.8006 42.6667H33.874L37.232 35.552H35.99Z" fill="white"/>
<path d="M45.1478 39.0174C45.1325 36.8707 43.6911 35.368 41.6211 35.368C39.4745 35.368 37.9718 37.0087 37.9718 39.1094C37.9718 41.21 39.4898 42.8507 41.6825 42.8507C43.2158 42.8507 44.4425 42.1147 44.8871 40.888H43.5838C43.2771 41.486 42.5871 41.808 41.6825 41.808C40.1951 41.808 39.2905 40.7807 39.1525 39.462H45.0711V39.4467L45.1171 39.462C45.1478 39.3087 45.1478 39.1707 45.1478 39.0174ZM41.6211 36.38C42.9705 36.38 43.8291 37.254 43.9518 38.634H39.1678C39.3365 37.3767 40.2105 36.38 41.6211 36.38Z" fill="white"/>
<path d="M48.2949 36.7174V35.552H47.1295V42.6667H48.2949V38.036C48.9235 37.0547 49.8742 36.518 51.0395 36.4874V35.3834C49.9049 35.3834 48.9542 35.874 48.2949 36.7174Z" fill="white"/>
<path d="M57.359 41.5167C56.9757 41.6547 56.531 41.762 56.1323 41.762C55.1203 41.762 54.599 41.256 54.599 40.0294V36.5487H57.2823V35.552H54.599V32.93H53.4337V35.552H51.5783V36.5487H53.4337V40.0294C53.4337 41.8847 54.277 42.8507 56.025 42.8507C56.4543 42.8507 56.945 42.7894 57.5277 42.59L57.359 41.5167Z" fill="white"/>
<path d="M65.6921 39.0174C65.6767 36.8707 64.2354 35.368 62.1654 35.368C60.0187 35.368 58.5161 37.0087 58.5161 39.1094C58.5161 41.21 60.0341 42.8507 62.2267 42.8507C63.7601 42.8507 64.9867 42.1147 65.4314 40.888H64.1281C63.8214 41.486 63.1314 41.808 62.2267 41.808C60.7394 41.808 59.8347 40.7807 59.6967 39.462H65.6154V39.4467L65.6614 39.462C65.6921 39.3087 65.6921 39.1707 65.6921 39.0174ZM62.1654 36.38C63.5147 36.38 64.3734 37.254 64.4961 38.634H59.7121C59.8807 37.3767 60.7547 36.38 62.1654 36.38Z" fill="white"/>
<path d="M68.8391 36.7174V35.552H67.6738V42.6667H68.8391V38.036C69.4678 37.0547 70.4185 36.518 71.5838 36.4874V35.3834C70.4491 35.3834 69.4985 35.874 68.8391 36.7174Z" fill="white"/>
<path d="M101.795 24.001L96.7755 17.7541L101.715 11.5609H99.2318L95.4139 16.2527L91.6228 11.5609H89.1132L94.0523 17.7541L94.079 17.7809L89.0331 24.001H91.4893L95.4406 19.1751L99.3385 24.001H101.795Z" fill="white"/>
<path d="M84.6913 9.33817C85.4655 9.33817 86.0796 8.74833 86.0796 7.99763C86.0796 7.22013 85.4655 6.63029 84.6913 6.63029C83.917 6.63029 83.3297 7.22013 83.3297 7.99763C83.3297 8.74833 83.917 9.33817 84.6913 9.33817ZM83.7034 11.5609V24.001H85.7325V11.5609H83.7034Z" fill="white"/>
<path fill-rule="evenodd" clip-rule="evenodd" d="M77.3595 10.6866C76.5375 10.1665 75.5078 9.99306 74.8184 10.0018L74.812 10.0019H70.4795V16.8062H74.8194L74.8332 16.8066C75.5079 16.8252 76.5336 16.652 77.3559 16.1268C78.1211 15.6381 78.7473 14.8306 78.7473 13.398C78.7473 11.9671 78.1229 11.1697 77.3595 10.6866ZM70.4795 18.8062V23.9985H68.4795V8.00192H74.7996C75.7574 7.99084 77.1948 8.2156 78.4289 8.99658C79.7246 9.81645 80.7473 11.2276 80.7473 13.398C80.7473 15.5667 79.7264 16.9859 78.4325 17.8124C77.2019 18.5983 75.7649 18.8303 74.7926 18.8062H70.4795Z" fill="white"/>
<path d="M38.6252 2.92236C36.8896 2.92236 35.4755 4.35765 35.4755 6.11915C35.4755 6.77155 35.7005 7.42395 36.054 7.9785H41.2285C41.6141 7.42395 41.8391 6.80417 41.8391 6.11915C41.8069 4.35765 40.3607 2.92236 38.6252 2.92236Z" fill="white"/>
<path d="M0 8.01519H4.30667V19.9542H13.7878V23.9991H0V8.01519Z" fill="white"/>
<path d="M36.6004 11.5015H40.6821V24.0021H36.6004V11.5015Z" fill="white"/>
<path fill-rule="evenodd" clip-rule="evenodd" d="M52.4438 7.62507C54.3079 7.62507 55.8827 8.147 57.2647 9.51705V7.99998H61.25V24.0004H57.2647V22.3694C55.8827 23.7068 54.34 24.2288 52.4438 24.2288C48.33 24.2288 44.7304 20.8036 44.7304 15.9432C44.7304 11.0502 48.33 7.62507 52.4438 7.62507ZM53.3437 20.4774C54.9828 20.4774 56.4934 19.6946 57.2647 17.8678V14.0186C56.4934 12.1919 54.9828 11.409 53.3437 11.409C50.6762 11.409 48.8442 13.4641 48.8442 15.9432C48.8442 18.455 50.6762 20.4774 53.3437 20.4774Z" fill="white"/>
<path fill-rule="evenodd" clip-rule="evenodd" d="M16.1008 15.926C16.1008 11.1546 19.5461 7.62507 24.5369 7.62507C29.3667 7.62507 32.5544 11.1219 32.5544 15.8279C32.5544 16.3181 32.5222 16.841 32.4578 17.3966H20.2222C20.834 19.4228 22.7016 20.5013 24.7623 20.5013C26.2112 20.5013 27.7246 20.0111 29.0769 18.7692L31.5562 21.4817C30.1717 22.9196 27.628 24.2269 24.6335 24.2269C19.5461 24.2269 16.1008 20.6974 16.1008 15.926ZM24.6013 11.1873C22.6372 11.1873 20.995 12.2004 20.351 14.1285H28.4008C28.0466 12.6579 26.662 11.1873 24.6013 11.1873Z" fill="white"/>
</svg>

<svg width="104" height="48" xmlns="http://www.w3.org/2000/svg"><path d="M5.428 41.731c-2.361 0-4.201-1.84-4.201-4.278 0-2.438 1.84-4.262 4.201-4.262 1.901 0 3.281 1.073 3.71 2.775h1.258c-.49-2.346-2.407-3.91-4.968-3.91C2.423 32.056 0 34.371 0 37.453c0 3.082 2.423 5.413 5.428 5.413 2.56 0 4.477-1.58 4.968-3.925H9.139c-.43 1.686-1.81 2.79-3.711 2.79ZM15.78 35.368c-2.147 0-3.788 1.625-3.788 3.741 0 2.147 1.64 3.742 3.787 3.742 2.116 0 3.772-1.595 3.772-3.742 0-2.116-1.656-3.741-3.772-3.741Zm0 6.41c-1.503 0-2.623-1.166-2.623-2.669 0-1.472 1.12-2.668 2.622-2.668 1.488 0 2.592 1.196 2.592 2.668 0 1.503-1.104 2.668-2.592 2.668ZM25.25 35.368c-1.012 0-1.886.353-2.546.981v-.797H21.54v7.115h1.165v-4.999c.614-.797 1.488-1.227 2.331-1.227 1.257 0 2.1.767 2.1 2.208v4.018h1.166v-4.079c0-2.009-1.242-3.22-3.051-3.22ZM35.99 35.552l-2.653 5.643-2.652-5.643h-1.242l3.358 7.115h1.073l3.358-7.115H35.99ZM45.148 39.017c-.016-2.146-1.457-3.649-3.527-3.649-2.147 0-3.65 1.64-3.65 3.741s1.519 3.742 3.712 3.742c1.533 0 2.76-.736 3.204-1.963h-1.303c-.307.598-.997.92-1.902.92-1.487 0-2.392-1.027-2.53-2.346h5.92v-.015l.045.015c.03-.153.03-.291.03-.445ZM41.62 36.38c1.35 0 2.208.874 2.33 2.254h-4.783c.169-1.257 1.043-2.254 2.453-2.254ZM48.295 36.717v-1.165h-1.166v7.115h1.166v-4.631c.628-.981 1.58-1.518 2.744-1.549v-1.104c-1.134 0-2.085.491-2.744 1.334ZM57.359 41.517c-.383.138-.828.245-1.227.245-1.012 0-1.533-.506-1.533-1.733v-3.48h2.683v-.997H54.6V32.93h-1.165v2.622h-1.856v.997h1.856v3.48c0 1.856.843 2.822 2.591 2.822.43 0 .92-.062 1.503-.261l-.169-1.073ZM65.692 39.017c-.015-2.146-1.457-3.649-3.527-3.649-2.146 0-3.649 1.64-3.649 3.741s1.518 3.742 3.71 3.742c1.534 0 2.76-.736 3.205-1.963h-1.303c-.307.598-.997.92-1.901.92-1.488 0-2.392-1.027-2.53-2.346h5.918v-.015l.046.015c.031-.153.031-.291.031-.445Zm-3.527-2.637c1.35 0 2.208.874 2.331 2.254h-4.784c.169-1.257 1.043-2.254 2.453-2.254ZM68.84 36.717v-1.165h-1.166v7.115h1.165v-4.631c.629-.981 1.58-1.518 2.745-1.549v-1.104c-1.135 0-2.085.491-2.745 1.334ZM101.795 24.001l-5.02-6.247 4.94-6.193h-2.483l-3.818 4.692-3.791-4.692h-2.51l4.94 6.193.026.027L89.033 24h2.456l3.952-4.826 3.897 4.826h2.457ZM84.691 9.338c.775 0 1.389-.59 1.389-1.34 0-.778-.614-1.368-1.389-1.368-.774 0-1.361.59-1.361 1.368 0 .75.587 1.34 1.361 1.34Zm-.988 2.223V24h2.03v-12.44h-2.03Z" fill="#fff"/><path fill-rule="evenodd" clip-rule="evenodd" d="M77.36 10.687c-.823-.52-1.852-.694-2.542-.685H70.48v6.804h4.353c.675.02 1.7-.154 2.523-.68.765-.488 1.391-1.295 1.391-2.728 0-1.43-.624-2.228-1.388-2.711Zm-6.88 8.12v5.192h-2V8.002h6.32c.957-.011 2.395.214 3.629.995 1.296.82 2.318 2.23 2.318 4.401 0 2.169-1.02 3.588-2.314 4.414-1.231.786-2.668 1.018-3.64.994h-4.314Z" fill="#fff"/><path d="M38.625 2.922c-1.735 0-3.15 1.436-3.15 3.197 0 .653.225 1.305.579 1.86h5.174c.386-.555.611-1.175.611-1.86-.032-1.761-1.478-3.197-3.214-3.197ZM0 8.015h4.307v11.94h9.48v4.044H0V8.015ZM36.6 11.502h4.082v12.5H36.6v-12.5Z" fill="#fff"/><path fill-rule="evenodd" clip-rule="evenodd" d="M52.444 7.625c1.864 0 3.439.522 4.82 1.892V8h3.986v16h-3.985v-1.63c-1.382 1.337-2.925 1.859-4.821 1.859-4.114 0-7.714-3.425-7.714-8.286 0-4.893 3.6-8.318 7.714-8.318Zm.9 12.852c1.639 0 3.15-.782 3.92-2.61V14.02c-.77-1.827-2.281-2.61-3.92-2.61-2.668 0-4.5 2.055-4.5 4.534 0 2.512 1.832 4.534 4.5 4.534ZM16.1 15.926c0-4.771 3.446-8.3 8.437-8.3 4.83 0 8.017 3.496 8.017 8.202 0 .49-.032 1.013-.096 1.569H20.222c.612 2.026 2.48 3.104 4.54 3.104 1.45 0 2.963-.49 4.315-1.732l2.48 2.713c-1.385 1.438-3.929 2.745-6.923 2.745-5.088 0-8.533-3.53-8.533-8.301Zm8.501-4.739c-1.964 0-3.606 1.013-4.25 2.942h8.05a3.887 3.887 0 0 0-3.8-2.942Z" fill="#fff"/></svg>
